img/homens-mobile.svg

<svg fill="none" height="50" viewBox="0 0 19 50" width="19" xmlns="http://www.w3.org/2000/svg"><g fill="#b5bd00"><path d="m18.7411 29.6642-1.3715-12.0951c-.1123-1.349-.7163-2.6098-1.6972-3.5427s-2.2703-1.473-3.6232-1.5176h-5.30863c-1.35169.0449-2.63966.5854-3.61859 1.5185-.97894.9332-1.58046 2.1938-1.69 3.5418l-1.4069533 12.0951c-.0588988.4932-.0135591.9932.1330833 1.4678.146642.4745.391318.913.718183 1.287.269917.3075.597887.5588.965107.7394.36723.1806.76649.2869 1.17488.3128l1.18232 15.5593c.0151.2624.13011.5091.3214.6894s.44434.2805.70721.2801h8.27619c.2633-.0022.5162-.1029.7088-.2824s.3109-.4247.3316-.6871l1.1824-15.5593c.4086-.0246.8083-.1304 1.1757-.311.3674-.1807.6952-.4327.9642-.7412.3311-.3721.5801-.8096.7308-1.2843.1508-.4746.1999-.9757.1442-1.4705zm-2.3647 1.3714c-.097.1086-.2153.1961-.3474.2571-.1322.061-.2755.0942-.4211.0976h-.7921c-.2633.0022-.5162.1029-.7088.2824s-.311.4247-.3317.6871l-1.1823 15.5593h-6.39629l-1.18232-15.5593c-.018-.2634-.13552-.5102-.32872-.6902s-.44764-.2799-.71171-.2793h-.74486c-.1458-.0019-.28956-.0345-.42195-.0956-.1324-.0611-.25047-.1494-.34656-.2591-.13876-.1608-.24122-.3497-.30039-.5537s-.07366-.4184-.04248-.6286l1.38331-12.0477c.05358-.8394.41275-1.6301 1.00965-2.2226s1.39016-.9459 2.22989-.9933h5.32043c.8397.0474 1.633.4008 2.2299.9933s.956 1.3832 1.0096 2.2226l1.3833 12.095c.0243.2026.0064.4081-.0526.6034-.059.1954-.1578.3764-.2902.5316z"/><path d="m9.40053 10.428c1.03127 0 2.03927-.3058 2.89677-.87871.8574-.57292 1.5257-1.38723 1.9203-2.33997.3947-.95273.4979-2.0011.2967-3.01251-.2011-1.01142-.6977-1.94047-1.4269-2.66966-.7292-.729193-1.6583-1.225778-2.6697-1.426962-1.01139-.201184-2.05975-.09792886-3.01249.296707-.95273.394635-1.76705 1.062925-2.33997 1.920365s-.87872 1.86551-.87872 2.89675c.00313 1.38188.55346 2.70627 1.5306 3.68341.97714.97713 2.30153 1.52748 3.68341 1.53058zm0-8.27619c.62267.00016 1.23117.18585 1.74777.53336.5167.34751.9181.84109 1.153 1.41774s.2927 1.21022.166 1.81984c-.1268.60963-.4323 1.16766-.8776 1.60288-.4453.43521-1.0102.72788-1.62258.84064-.61236.11276-1.24444.04051-1.81556-.20755-.57112-.24805-1.05538-.66065-1.39097-1.18514-.33559-.52448-.50729-1.13707-.49319-1.75957.00312-.82891.3346-1.6228.92184-2.20782s1.38237-.9135 2.21129-.91349z"/></g></svg>

<svg width="19" height="50" viewBox="0 0 19 50" fill="none" xmlns="http://www.w3.org/2000/svg">
<path d="M18.7411 29.6642L17.3696 17.5691C17.2573 16.2201 16.6533 14.9593 15.6724 14.0264C14.6915 13.0935 13.4021 12.5534 12.0492 12.5088H6.74057C5.38888 12.5537 4.10091 13.0942 3.12198 14.0273C2.14304 14.9605 1.54152 16.2211 1.43198 17.5691L0.0250267 29.6642C-0.0338721 30.1574 0.0114676 30.6574 0.15811 31.132C0.304752 31.6065 0.549428 32.045 0.876293 32.419C1.14621 32.7265 1.47418 32.9778 1.8414 33.1584C2.20863 33.339 2.60789 33.4453 3.01628 33.4712L4.1986 49.0305C4.2137 49.2929 4.32871 49.5396 4.52 49.7199C4.71129 49.9002 4.96434 50.0004 5.22721 50H13.5034C13.7667 49.9978 14.0196 49.8971 14.2122 49.7176C14.4048 49.5381 14.5231 49.2929 14.5438 49.0305L15.7262 33.4712C16.1348 33.4466 16.5345 33.3408 16.9019 33.1602C17.2693 32.9795 17.5971 32.7275 17.8661 32.419C18.1972 32.0469 18.4462 31.6094 18.5969 31.1347C18.7477 30.6601 18.7968 30.159 18.7411 29.6642ZM16.3764 31.0356C16.2794 31.1442 16.1611 31.2317 16.029 31.2927C15.8968 31.3537 15.7535 31.3869 15.6079 31.3903H14.8158C14.5525 31.3925 14.2996 31.4932 14.107 31.6727C13.9144 31.8522 13.796 32.0974 13.7753 32.3598L12.593 47.9191H6.19671L5.01439 32.3598C4.99639 32.0964 4.87887 31.8496 4.68567 31.6696C4.49247 31.4896 4.23803 31.3897 3.97396 31.3903H3.2291C3.0833 31.3884 2.93954 31.3558 2.80715 31.2947C2.67475 31.2336 2.55668 31.1453 2.46059 31.0356C2.32183 30.8748 2.21937 30.6859 2.1602 30.4819C2.10103 30.2779 2.08654 30.0635 2.11772 29.8533L3.50103 17.8056C3.55461 16.9662 3.91378 16.1755 4.51068 15.583C5.10758 14.9905 5.90084 14.6371 6.74057 14.5897H12.061C12.9007 14.6371 13.694 14.9905 14.2909 15.583C14.8878 16.1755 15.2469 16.9662 15.3005 17.8056L16.6838 29.9006C16.7081 30.1032 16.6902 30.3087 16.6312 30.504C16.5722 30.6994 16.4734 30.8804 16.341 31.0356H16.3764Z" fill="#B5BD00"/>
<path d="M9.40053 10.428C10.4318 10.428 11.4398 10.1222 12.2973 9.54929C13.1547 8.97637 13.823 8.16206 14.2176 7.20932C14.6123 6.25659 14.7155 5.20822 14.5143 4.19681C14.3132 3.18539 13.8166 2.25634 13.0874 1.52715C12.3582 0.797957 11.4291 0.301372 10.4177 0.100188C9.40631 -0.100996 8.35795 0.00225914 7.40521 0.396895C6.45248 0.79153 5.63816 1.45982 5.06524 2.31726C4.49232 3.1747 4.18652 4.18277 4.18652 5.21401C4.18965 6.59589 4.73998 7.92028 5.71712 8.89742C6.69426 9.87455 8.01865 10.4249 9.40053 10.428ZM9.40053 2.15181C10.0232 2.15197 10.6317 2.33766 11.1483 2.68517C11.665 3.03268 12.0664 3.52626 12.3013 4.10291C12.5362 4.67956 12.594 5.31313 12.4673 5.92275C12.3405 6.53238 12.035 7.09041 11.5897 7.52563C11.1444 7.96084 10.5795 8.25351 9.96712 8.36627C9.35476 8.47903 8.72268 8.40678 8.15156 8.15872C7.58044 7.91067 7.09618 7.49807 6.76059 6.97358C6.425 6.4491 6.2533 5.83651 6.2674 5.21401C6.27052 4.3851 6.602 3.59121 7.18924 3.00619C7.77648 2.42117 8.57161 2.09269 9.40053 2.0927V2.15181Z" fill="#B5BD00"/>
</svg>
